app/ui/static/images/icons/solid/globe-americas.svg

<svg width="20" height="20" viewBox="0 0 20 20" fill="none" xmlns="http://www.w3.org/2000/svg">
<path fill-rule="evenodd" clip-rule="evenodd" d="M18 10C18 14.4183 14.4183 18 10 18C5.58172 18 2 14.4183 2 10C2 5.58172 5.58172 2 10 2C14.4183 2 18 5.58172 18 10ZM16.5 10C16.5 13.5899 13.5899 16.5 10 16.5C6.41015 16.5 3.5 13.5899 3.5 10C3.5 8.15664 4.26733 6.4925 5.5 5.30957V5.75736C5.5 6.68562 5.86875 7.57586 6.52513 8.23223L8.29289 10L8 10.2929C7.60947 10.6834 7.60948 11.3166 8 11.7071L9.06066 12.7678C9.34197 13.0491 9.5 13.4306 9.5 13.8284V14.191C9.5 14.5698 9.714 14.916 10.0528 15.0854L10.3292 15.2236C10.8232 15.4706 11.4238 15.2704 11.6708 14.7764L13.1249 11.8683C13.4136 11.2908 13.3004 10.5933 12.8439 10.1368L12.0721 9.36495C11.8042 9.09712 11.4081 9.0036 11.0487 9.12338L10.6647 9.2514C10.4286 9.33008 10.1706 9.22322 10.0593 9.00066L9.76344 8.40885C9.67084 8.22365 9.70714 7.99997 9.85355 7.85355C9.99997 7.70714 10.2236 7.67084 10.4088 7.76344L10.6708 7.89443C10.8097 7.96385 10.9628 8 11.118 8H11.3063C11.9888 8 12.4708 7.3313 12.255 6.68377L12.187 6.47978C12.1227 6.28692 12.1816 6.07434 12.3359 5.94204L13.7754 4.70821C15.4248 5.8871 16.5 7.81799 16.5 10Z" fill="#0F172A"/>
</svg>

<svg xmlns="http://www.w3.org/2000/svg" viewBox="0 0 20 20" fill="currentColor" aria-hidden="true">
  <path fill-rule="evenodd" d="M18 10a8 8 0 11-16 0 8 8 0 0116 0zm-1.5 0a6.5 6.5 0 11-11-4.69v.447a3.5 3.5 0 001.025 2.475L8.293 10 8 10.293a1 1 0 000 1.414l1.06 1.06a1.5 1.5 0 01.44 1.061v.363a1 1 0 00.553.894l.276.139a1 1 0 001.342-.448l1.454-2.908a1.5 1.5 0 00-.281-1.731l-.772-.772a1 1 0 00-1.023-.242l-.384.128a.5.5 0 01-.606-.25l-.296-.592a.481.481 0 01.646-.646l.262.131a1 1 0 00.447.106h.188a1 1 0 00.949-1.316l-.068-.204a.5.5 0 01.149-.538l1.44-1.234A6.492 6.492 0 0116.5 10z" clip-rule="evenodd"/>
</svg>
